src/components/ProductFeature/images/feature-api.svg

<svg xmlns="http://www.w3.org/2000/svg" width="135" height="223" fill="none" viewBox="0 0 135 223"><g opacity=".4"><ellipse cx="67.89" cy="129.828" fill="#331251" rx="25.509" ry="6.478"/><path fill="#fff" fill-rule="evenodd" d="M93.399 115.257C93.3991 115.255 93.3991 115.253 93.3991 115.251C93.3991 111.673 81.9784 108.773 67.8902 108.773C53.8022 108.773 42.3815 111.673 42.3814 115.251H42.3814V128.208C42.3814 131.786 53.8021 134.686 67.8902 134.686C81.9784 134.686 93.399 131.786 93.399 128.208V115.257Z" clip-rule="evenodd" opacity=".4"/><path fill="#fff" d="M93.399 115.251C93.399 118.829 81.9784 121.73 67.8902 121.73C53.8021 121.73 42.3814 118.829 42.3814 115.251C42.3814 111.673 53.8021 108.773 67.8902 108.773C81.9784 108.773 93.399 111.673 93.399 115.251Z" opacity=".4"/><ellipse cx="67.89" cy="115.251" fill="#331251" rx="25.509" ry="6.478"/><path fill="#fff" fill-rule="evenodd" d="M93.399 100.681C93.3991 100.679 93.3991 100.677 93.3991 100.674C93.3991 97.0965 81.9784 94.196 67.8902 94.196C53.8021 94.196 42.3814 97.0965 42.3814 100.674C42.3814 100.674 42.3814 100.675 42.3814 100.675H42.3814V113.631C42.3814 117.209 53.8021 120.11 67.8902 120.11C81.9784 120.11 93.399 117.209 93.399 113.631V100.681Z" clip-rule="evenodd" opacity=".4"/><ellipse cx="67.89" cy="100.674" fill="#331251" rx="25.509" ry="6.478"/><path fill="#fff" fill-rule="evenodd" d="M93.399 86.1068C93.3991 86.1039 93.3991 86.101 93.3991 86.0981C93.3991 82.5201 81.9784 79.6196 67.8903 79.6196C53.8022 79.6196 42.3816 82.5201 42.3814 86.098H42.3814V99.0548C42.3814 102.633 53.8021 105.533 67.8902 105.533C81.9784 105.533 93.399 102.633 93.399 99.0548V86.1068Z" clip-rule="evenodd" opacity=".4"/><ellipse cx="67.89" cy="86.098" fill="#331251" rx="25.509" ry="6.478"/><ellipse cx="67.89" cy="84.478" fill="#fff" fill-opacity=".8" rx="25.509" ry="6.478"/></g><path fill="#DE9A69" fill-rule="evenodd" d="M0.749665 218.141C0.749664 220.825 2.92503 223 5.60849 223L35.5893 223C38.2727 223 40.4481 220.825 40.4481 218.141L40.4481 200.764C40.4481 198.08 42.6235 195.905 45.3069 195.905L69.2497 195.905C69.4733 195.905 69.6546 195.724 69.6546 195.5L69.6546 147.5C69.6546 147.276 69.4733 147.095 69.2497 147.095C69.0261 147.095 68.8448 147.276 68.8448 147.5L68.8448 190.236C68.8448 192.92 66.6694 195.095 63.9859 195.095L45.3069 195.095C42.6235 195.095 40.4481 192.92 40.4481 190.236L40.4481 166.859C40.4481 164.175 38.2727 162 35.5893 162L26.0134 162C23.3299 162 21.1545 159.825 21.1545 157.141L21.1545 132.098C21.1545 127.849 24.5989 124.405 28.8477 124.405L52.0779 124.405C52.3015 124.405 52.4828 124.224 52.4828 124C52.4828 123.776 52.3015 123.595 52.0779 123.595L28.8477 123.595C24.1516 123.595 20.3447 127.402 20.3447 132.098L20.3447 157.141C20.3447 159.825 18.1694 162 15.4859 162L5.6085 162C2.92504 162 0.749669 164.175 0.749669 166.859L0.749665 218.141ZM106.184 97.0951C110.433 97.0951 113.877 93.6507 113.877 89.4019L113.877 65.8588C113.877 63.1753 111.702 61 109.018 61L98.8588 61C96.1754 61 94 58.8246 94 56.1412L94 35.7637C94 33.0803 91.8247 30.9049 89.1412 30.9049L74.5134 30.9049C71.8299 30.9049 69.6546 33.0803 69.6546 35.7637L69.6546 74.5C69.6546 74.7236 69.4733 74.9049 69.2497 74.9049C69.0261 74.9049 68.8448 74.7236 68.8448 74.5L68.8448 30.5C68.8448 30.3926 68.8874 30.2896 68.9634 30.2137C69.0393 30.1377 69.1423 30.0951 69.2497 30.0951L89.1412 30.0951C91.8246 30.0951 94 27.9197 94 25.2363L94 4.85879C94 2.17534 96.1754 -3.39117e-05 98.8588 -3.36771e-05L130.141 -3.09423e-05C132.825 -3.07078e-05 135 2.17535 135 4.8588L135 56.1412C135 58.8246 132.825 61 130.141 61L119.546 61C116.862 61 114.687 63.1753 114.687 65.8588L114.687 89.4019C114.687 94.098 110.88 97.9049 106.184 97.9049L82.0779 97.9049C81.8543 97.9049 81.673 97.7236 81.673 97.5C81.673 97.2764 81.8543 97.0951 82.0779 97.0951L106.184 97.0951Z" clip-rule="evenodd"/><path fill="#fff" d="M53.7504 138.315L58.6826 143.24H53.7504V138.315ZM53.7504 137.083L59.9156 143.24H64.8479L53.7504 132.158V137.083ZM53.7504 130.926L66.0809 143.24H71.0131L53.7504 126.001V130.926ZM59.9156 130.926L72.2462 143.24V138.315L59.9156 126.001V130.926ZM66.0809 126.001V130.926L72.2462 137.083V132.158L66.0809 126.001Z"/><path fill="#fff" fill-rule="evenodd" d="M79.9765 139.876C80.8693 140.768 82.0806 141.269 83.3443 141.269V143.24H73.1188V133.028L79.9765 139.876ZM77.0648 140.284C77.0648 140.829 76.6231 141.27 76.0783 141.27C75.5335 141.27 75.0919 140.829 75.0919 140.284C75.0919 139.74 75.5335 139.299 76.0783 139.299C76.6231 139.299 77.0648 139.74 77.0648 140.284Z" clip-rule="evenodd"/><path fill="#fff" d="M53.7498 143.239H58.682L53.7498 138.314V143.239Z"/><path fill="#fff" d="M59.9161 132.158L53.7509 126.001V130.926L59.9161 137.083V132.158Z"/><path fill="#fff" d="M53.7498 132.157V137.083L59.915 143.24V138.314L53.7498 132.157Z"/><path fill="#fff" d="M66.0807 132.157L59.9154 126V130.926L66.0807 137.083V132.157Z"/><path fill="#fff" d="M59.9144 143.239H64.8466L59.9144 138.314V143.239Z"/><path fill="#fff" d="M59.9144 132.157V137.083L66.0797 143.24V138.314L59.9144 132.157Z"/><rect width="13" height="13" x="99" y="5" fill="#fff" fill-opacity=".6" rx="1"/><rect width="13" height="20" x="117" y="36" fill="#fff" fill-opacity=".4" rx="1"/><path stroke="#fff" stroke-linecap="round" stroke-linejoin="round" stroke-opacity=".6" d="M116.5 6H129.5M116.5 11H129.5"/><path stroke="#fff" stroke-linecap="round" stroke-linejoin="round" stroke-opacity=".6" d="M116.5 16H129.5"/><g opacity=".2"><rect width="11" height="11" x="23.75" y="167" fill="#fff" rx="1"/><rect width="10" height="10" x="24.25" y="167.5" stroke="#fff" stroke-opacity=".8" rx=".5"/></g><path stroke="#fff" stroke-linecap="round" stroke-linejoin="round" stroke-opacity=".6" d="M6.74963 169H19.7496M6.74963 174H19.7496"/><path stroke="#fff" stroke-linecap="round" stroke-linejoin="round" stroke-opacity=".6" d="M6.74963 179H19.7496"/><path stroke="#fff" stroke-linecap="round" stroke-linejoin="round" stroke-opacity=".6" d="M6.74963 183H34.7496M6.74963 188H34.7496"/><path stroke="#fff" stroke-linecap="round" stroke-linejoin="round" stroke-opacity=".6" d="M6.74963 193H34.7496"/><path stroke="#fff" stroke-linecap="round" stroke-linejoin="round" stroke-opacity=".6" d="M6.74963 197H34.7496M6.74963 202H34.7496"/><path stroke="#fff" stroke-linecap="round" stroke-linejoin="round" stroke-opacity=".6" d="M6.74963 207H34.7496"/><path stroke="#fff" stroke-linecap="round" stroke-linejoin="round" stroke-opacity=".6" d="M6.74963 212H34.7496M6.74963 217H34.7496"/><path stroke="#fff" stroke-linecap="round" stroke-linejoin="round" stroke-opacity=".6" d="M99 25H129.5M99 30H129.5"/><path stroke="#fff" stroke-linecap="round" stroke-linejoin="round" stroke-opacity=".6" d="M99 37H112M99 42H112"/><path stroke="#fff" stroke-linecap="round" stroke-linejoin="round" stroke-opacity=".6" d="M99 47H112"/><path stroke="#fff" stroke-linecap="round" stroke-linejoin="round" stroke-opacity=".6" d="M99 51H112M99 56H112"/><circle cx="82.75" cy="98" r="2.5" fill="#563672" stroke="#685EAA"/><circle cx="69.75" cy="31" r="2.5" fill="#563672" stroke="#685EAA"/><circle cx="68.75" cy="196" r="2.5" fill="#563672" stroke="#685EAA"/><circle cx="54.75" cy="124" r="2.5" fill="#563672" stroke="#685EAA"/></svg>

<svg fill="none" xmlns="http://www.w3.org/2000/svg" width="135" height="223" viewBox="0 0 135 223"><g opacity=".4"><ellipse cx="67.89" cy="129.828" rx="25.509" ry="6.478" fill="#331251"/><path opacity=".4" fill-rule="evenodd" clip-rule="evenodd" d="M93.399 115.257v-.006c0-3.578-11.42-6.478-25.509-6.478-14.088 0-25.508 2.9-25.509 6.478v12.957c0 3.578 11.421 6.478 25.51 6.478 14.087 0 25.508-2.9 25.508-6.478v-12.951z" fill="#fff"/><path opacity=".4" d="M93.399 115.251c0 3.578-11.42 6.479-25.509 6.479-14.088 0-25.509-2.901-25.509-6.479 0-3.578 11.421-6.478 25.51-6.478 14.087 0 25.508 2.9 25.508 6.478z" fill="#fff"/><ellipse cx="67.89" cy="115.251" rx="25.509" ry="6.478" fill="#331251"/><path opacity=".4" fill-rule="evenodd" clip-rule="evenodd" d="M93.399 100.681v-.007c0-3.578-11.42-6.478-25.509-6.478-14.088 0-25.509 2.9-25.509 6.478V113.631c0 3.578 11.421 6.479 25.51 6.479 14.087 0 25.508-2.901 25.508-6.479v-12.95z" fill="#fff"/><ellipse cx="67.89" cy="100.674" rx="25.509" ry="6.478" fill="#331251"/><path opacity=".4" fill-rule="evenodd" clip-rule="evenodd" d="M93.399 86.107v-.009c0-3.578-11.42-6.478-25.509-6.478-14.088 0-25.508 2.9-25.509 6.478v12.957c0 3.578 11.421 6.478 25.51 6.478 14.087 0 25.508-2.9 25.508-6.478V86.107z" fill="#fff"/><ellipse cx="67.89" cy="86.098" rx="25.509" ry="6.478" fill="#331251"/><ellipse cx="67.89" cy="84.478" rx="25.509" ry="6.478" fill="#fff" fill-opacity=".8"/></g><path fill-rule="evenodd" clip-rule="evenodd" d="M.75 218.141A4.859 4.859 0 005.608 223H35.59a4.859 4.859 0 004.86-4.859v-17.377a4.859 4.859 0 014.858-4.859H69.25a.405.405 0 00.405-.405v-48a.405.405 0 10-.81 0v42.736a4.859 4.859 0 01-4.86 4.859H45.308a4.859 4.859 0 01-4.859-4.859v-23.377A4.859 4.859 0 0035.59 162h-9.576a4.859 4.859 0 01-4.859-4.859v-25.043a7.693 7.693 0 017.694-7.693h23.23a.405.405 0 100-.81h-23.23a8.503 8.503 0 00-8.503 8.503v25.043a4.859 4.859 0 01-4.86 4.859H5.609a4.859 4.859 0 00-4.858 4.859v51.282zM106.184 97.095a7.693 7.693 0 007.693-7.693V65.859A4.859 4.859 0 00109.018 61h-10.16A4.859 4.859 0 0194 56.141V35.764a4.859 4.859 0 00-4.859-4.86H74.513a4.859 4.859 0 00-4.858 4.86V74.5a.405.405 0 01-.81 0v-44a.405.405 0 01.405-.405H89.14A4.859 4.859 0 0094 25.236V4.86A4.859 4.859 0 0198.859 0h31.282A4.859 4.859 0 01135 4.859V56.14A4.859 4.859 0 01130.141 61h-10.595a4.859 4.859 0 00-4.859 4.859v23.543a8.503 8.503 0 01-8.503 8.503H82.078a.405.405 0 110-.81h24.106z" fill="#DE9A69"/><path d="M53.75 138.315l4.933 4.925H53.75v-4.925zm0-1.232l6.166 6.157h4.932L53.75 132.158v4.925zm0-6.157l12.331 12.314h4.932L53.75 126.001v4.925zm6.166 0l12.33 12.314v-4.925l-12.33-12.314v4.925zm6.165-4.925v4.925l6.165 6.157v-4.925l-6.165-6.157z" fill="#000"/><path fill-rule="evenodd" clip-rule="evenodd" d="M79.977 139.876a4.764 4.764 0 003.367 1.393v1.971H73.12v-10.212l6.858 6.848zm-2.912.408a.986.986 0 11-1.972 0 .986.986 0 011.972 0z" fill="#000"/><path d="M53.75 143.239h4.932l-4.932-4.925v4.925zM59.916 132.158l-6.165-6.157v4.925l6.165 6.157v-4.925zM53.75 132.157v4.926l6.165 6.157v-4.926l-6.165-6.157zM66.08 132.157L59.916 126v4.926l6.166 6.157v-4.926z" fill="#000"/><path d="M59.914 143.239h4.933l-4.932-4.925v4.925zM59.914 132.157v4.926l6.166 6.157v-4.926l-6.166-6.157z" fill="#000"/><rect x="99" y="5" width="13" height="13" rx="1" fill="#fff" fill-opacity=".6"/><rect x="117" y="36" width="13" height="20" rx="1" fill="#fff" fill-opacity=".4"/><path d="M116.5 6h13m-13 5h13M116.5 16h13" stroke="#fff" stroke-opacity=".6" stroke-linecap="round" stroke-linejoin="round"/><g opacity=".2"><rect x="23.75" y="167" width="11" height="11" rx="1" fill="#fff"/><rect x="24.25" y="167.5" width="10" height="10" rx=".5" stroke="#fff" stroke-opacity=".8"/></g><path d="M6.75 169h13m-13 5h13M6.75 179h13M6.75 183h28m-28 5h28M6.75 193h28M6.75 197h28m-28 5h28M6.75 207h28M6.75 212h28m-28 5h28M99 25h30.5M99 30h30.5M99 37h13m-13 5h13M99 47h13M99 51h13m-13 5h13" stroke="#fff" stroke-opacity=".6" stroke-linecap="round" stroke-linejoin="round"/><circle cx="82.75" cy="98" r="2.5" fill="#563672" stroke="#685EAA"/><circle cx="69.75" cy="31" r="2.5" fill="#563672" stroke="#685EAA"/><circle cx="68.75" cy="196" r="2.5" fill="#563672" stroke="#685EAA"/><circle cx="54.75" cy="124" r="2.5" fill="#563672" stroke="#685EAA"/></svg>
